public/images/frog/sheet/frog-with-book.svg

<svg width="187" height="71" viewBox="0 0 187 71" fill="none" xmlns="http://www.w3.org/2000/svg">
<path d="M26.31 52.0253C26.3132 51.6502 26.3322 51.2753 26.3565 50.9048C27.2382 44.8137 30.3269 39.5224 34.9219 34.8086C39.8581 29.7403 45.9883 25.9265 52.9458 23.0023C53.3912 22.8163 53.7103 22.5719 53.9354 22.2031C54.9696 20.5218 55.9985 18.8359 57.0695 17.1681C59.1688 13.8895 61.1314 10.5391 63.9462 7.61957C66.3079 5.16836 68.9317 2.96648 72.3572 1.55687C75.194 0.389396 78.1252 -0.0579905 81.1374 1.12364C83.6705 2.12029 85.2142 3.88524 86.2901 5.96836C87.4649 8.23766 87.9358 10.6334 88.0787 13.0837C88.0878 13.2515 87.9851 13.5198 88.3073 13.5402C88.6453 13.5607 88.5472 13.2863 88.5698 13.1188C88.6035 12.8896 88.6001 12.6601 88.6285 12.4353C88.9543 9.54762 89.6599 6.74262 91.6201 4.2836C93.6659 1.71058 96.4886 0.339995 100.285 0.694231C102.571 0.907726 104.593 1.71913 106.449 2.81597C110.66 5.3051 113.685 8.64472 116.164 12.3592C118.423 15.7453 120.411 19.2526 122.516 22.7036C122.735 23.0629 122.976 23.3606 123.439 23.5587C126.087 24.6931 128.612 25.9986 131.009 27.4707C137.469 31.4262 142.786 36.215 146.296 42.2902C148.024 45.2879 149.15 48.3643 149.614 51.519C149.664 56.9998 149.614 60.9271 149.614 56.9998C129 56.9999 120.08 56.9998 86.2901 56.9998C52.5 56.9998 57.0691 56.9998 28.001 56.9998L26.31 52.0253Z" fill="#00CE4C"/>
<path d="M77.9453 12.9971C82.5649 15.6843 83.9484 20.5869 81.5339 25.1257C79.9627 28.0706 76.9381 29.7788 73.8985 29.4337C71.043 29.0983 68.7241 26.7591 67.8525 23.438C66.1629 16.9438 72.9743 10.7477 77.9453 12.9971Z" fill="#0E0E0E"/>
<path d="M99.6068 12.2221C104.93 12.7469 108.222 16.6096 107.902 21.7094C107.691 25.0202 105.643 27.812 102.73 28.7534C99.989 29.6276 96.9067 28.4687 94.7363 25.8251C90.5059 20.6496 94.1451 12.238 99.6068 12.2221Z" fill="#0E0E0E"/>
<path d="M76.137 20.4792C75.471 19.0701 75.6775 17.9598 76.8149 17.0968C77.566 16.5392 78.4003 16.5104 79.2274 16.9694C80.2702 17.5482 80.7598 18.4417 80.7544 19.5988C80.7485 20.4122 80.4522 21.1201 79.6571 21.4584C78.3514 22.0051 77.2503 21.4776 76.1555 20.4802L76.137 20.4792Z" fill="white"/>
<path d="M100.822 20.2122C99.4786 19.0773 99.1693 17.8433 99.9301 16.4307C100.438 15.5104 101.28 15.0935 102.343 15.18C103.683 15.289 104.605 15.9775 105.142 17.1659C105.518 18.0024 105.546 18.8655 104.89 19.5814C103.808 20.7481 102.432 20.7186 100.842 20.2047L100.822 20.2122Z" fill="white"/>
<path d="M89.1692 39.1924C87.4449 40.2911 85.6163 41.028 83.6152 41.2022C81.9045 41.3541 80.3163 40.9476 79.0867 39.6569C78.7736 39.3264 78.5784 38.9333 78.9051 38.5001C79.2046 38.1026 79.6584 38.0892 79.9579 38.5046C80.8019 39.6837 82.0679 39.8713 83.3565 39.8221C85.0717 39.7551 86.7507 39.2639 88.1664 38.3661C89.2282 37.6917 90.1085 37.7185 91.2247 37.9999C92.8083 38.3974 94.4283 38.4019 95.9801 37.714C96.5972 37.4416 97.0918 37.0039 97.6227 36.6109C97.9494 36.3697 98.3442 36.0437 98.68 36.3697C99.043 36.7181 98.7163 37.1558 98.4486 37.4684C97.3051 38.8083 95.7986 39.447 94.0517 39.5542C92.7448 39.6346 91.4698 39.4291 90.2401 38.9869C89.8362 38.8396 89.5004 38.8396 89.1692 39.1924Z" fill="#0C200F"/>
<path d="M122.504 9.99971C122.504 9.47855 122.905 9.04476 123.424 9.00293L159.615 6.08893C160.197 6.04207 160.695 6.50178 160.695 7.08571V56C160.695 56.5523 160.248 57 159.695 57H123.504C122.952 57 122.504 56.5523 122.504 56V9.99971Z" fill="#FB7A35"/>
<path fill-rule="evenodd" clip-rule="evenodd" d="M158.448 7.11914L122.504 10.192V57H141H158.448V10.192H167.435L158.448 7.11914Z" fill="#E0E1E9"/>
<path d="M122.504 9.91309H125.031V57H122.504V9.91309Z" fill="#FB7A35"/>
<path d="M124.509 10.002C123.957 10.002 123.509 10.4497 123.509 11.002L123.509 56C123.509 56.5523 123.957 57 124.509 57L146 57L168.75 57C169.303 57 169.75 56.5523 169.75 56L169.75 11.002C169.75 10.4497 169.303 10.002 168.75 10.002L124.509 10.002Z" fill="#FB7A35"/>
<rect x="127.53" y="27.002" width="12" height="38.1992" rx="1" transform="rotate(-90 127.53 27.002)" fill="white"/>
<path d="M167.424 35.0235C159.273 35.0235 152.661 38.7077 152.661 43.2467C152.661 45.1511 153.821 46.9039 155.772 48.2943C156.115 48.5432 156.115 49.0679 155.772 49.3114C153.821 50.7072 152.661 52.46 152.661 54.3589C152.661 57 152.161 56.9956 153.5 56.9956C154.839 56.9956 156.5 57 158.5 57C163.5 57 165.995 57 167.419 57C173.495 57 167.848 57 176 57C176.593 57 187.827 56.9892 179 57L182 56.9953C186.5 56.9997 186 57.2722 186 54.3589C186 43.8418 178.291 35.0018 168.777 35.0018C168.584 35.0018 168.402 35.0127 168.215 35.0181C167.95 35.0072 167.69 35.0018 167.419 35.0018L167.424 35.0235Z" fill="#00CE4C"/>
<path d="M0.146283 55.481C0.0773584 63.5895 3.70555 70.1977 8.24439 70.2363C10.1487 70.2525 11.9112 69.1135 13.3181 67.1848C13.5698 66.8454 14.0946 66.8499 14.3351 67.1935C15.7144 69.1458 17.4573 70.3146 19.3562 70.3308C21.255 70.3469 23.023 69.2079 24.4299 67.2793C24.6816 66.9399 25.2064 66.9443 25.4469 67.2879C26.8262 69.2403 28.5691 70.4091 30.468 70.4252C35.0122 70.4638 38.7468 63.9182 38.8157 55.8097C38.8208 55.2198 38.7986 54.64 38.7656 54.0705L38.7548 54.0704C38.5956 44.7904 30.1115 37.256 19.5948 37.1666C9.0781 37.0772 0.216528 44.6711 0.136079 54.1354C0.134452 54.3269 0.143736 54.5081 0.147562 54.6944C0.134499 54.9582 0.126886 55.2169 0.124599 55.486L0.146283 55.481Z" fill="#00CE4C"/>
</svg>

<svg width="187" height="71" fill="none" xmlns="http://www.w3.org/2000/svg"><path d="M26.31 52.025c.003-.375.022-.75.047-1.12.881-6.091 3.97-11.383 8.565-16.096 4.936-5.069 11.066-8.882 18.024-11.807.445-.186.764-.43.99-.799 1.034-1.681 2.063-3.367 3.133-5.035 2.1-3.278 4.062-6.629 6.877-9.548 2.362-2.452 4.986-4.654 8.411-6.063 2.837-1.168 5.768-1.615 8.78-.433 2.534.996 4.077 2.761 5.153 4.844 1.175 2.27 1.646 4.665 1.789 7.116.009.168-.094.436.228.456.338.02.24-.254.263-.421.034-.23.03-.459.059-.684.325-2.887 1.03-5.692 2.991-8.151C93.666 1.71 96.49.34 100.285.694c2.286.214 4.308 1.025 6.164 2.122 4.211 2.49 7.236 5.829 9.715 9.543 2.259 3.386 4.247 6.894 6.352 10.345.219.359.46.657.923.855a58.362 58.362 0 0 1 7.57 3.912c6.46 3.955 11.777 8.744 15.287 14.82 1.728 2.997 2.854 6.073 3.318 9.228.05 5.48 0 9.408 0 5.48H28.001l-1.691-4.974Z" fill="#00CE4C"/><path d="M77.945 12.997c4.62 2.687 6.003 7.59 3.589 12.129-1.571 2.945-4.596 4.653-7.636 4.308-2.855-.336-5.174-2.675-6.045-5.996-1.69-6.494 5.121-12.69 10.092-10.44ZM99.607 12.222c5.323.525 8.615 4.388 8.295 9.487-.211 3.311-2.259 6.103-5.172 7.044-2.741.875-5.823-.284-7.994-2.928-4.23-5.175-.59-13.587 4.87-13.603Z" fill="#0E0E0E"/><path d="M76.137 20.48c-.666-1.41-.46-2.52.678-3.383.751-.558 1.585-.587 2.412-.128 1.043.58 1.533 1.473 1.527 2.63-.005.813-.302 1.521-1.097 1.86-1.306.546-2.407.019-3.501-.979h-.019ZM100.822 20.212c-1.343-1.135-1.653-2.369-.892-3.781.508-.92 1.35-1.338 2.413-1.251 1.34.109 2.262.797 2.799 1.986.376.836.404 1.7-.252 2.415-1.082 1.167-2.458 1.138-4.048.624l-.02.007Z" fill="#fff"/><path d="M89.17 39.192c-1.725 1.1-3.554 1.836-5.555 2.01-1.71.152-3.299-.254-4.528-1.545-.313-.33-.509-.724-.182-1.157.3-.397.753-.41 1.053.005.844 1.179 2.11 1.366 3.398 1.317 1.716-.067 3.395-.558 4.81-1.456 1.062-.674 1.943-.648 3.059-.366 1.583.397 3.203.402 4.755-.286.617-.272 1.112-.71 1.643-1.103.326-.241.721-.567 1.057-.241.363.348.036.786-.231 1.098-1.144 1.34-2.65 1.979-4.397 2.086a9.47 9.47 0 0 1-3.812-.567c-.404-.147-.74-.147-1.07.205Z" fill="#0C200F"/><path d="M122.504 10a1 1 0 0 1 .92-.997l36.191-2.914a1 1 0 0 1 1.08.997V56a1 1 0 0 1-1 1h-36.191a1 1 0 0 1-1-1V10Z" fill="#FB7A35"/><path fill-rule="evenodd" clip-rule="evenodd" d="m158.448 7.12-35.944 3.072V57h35.944V10.192h8.987l-8.987-3.073Z" fill="#E0E1E9"/><path d="M122.504 9.913h2.527V57h-2.527V9.913Z" fill="#FB7A35"/><path d="M124.509 10.002a1 1 0 0 0-1 1V56a1 1 0 0 0 1 1h44.241a1 1 0 0 0 1-1V11.002a1 1 0 0 0-1-1h-44.241Z" fill="#FB7A35"/><rect x="127.53" y="27.002" width="12" height="38.199" rx="1" transform="rotate(-90 127.53 27.002)" fill="#fff"/><path d="M167.424 35.023c-8.151 0-14.763 3.685-14.763 8.224 0 1.904 1.16 3.657 3.111 5.047a.631.631 0 0 1 0 1.017c-1.951 1.396-3.111 3.149-3.111 5.048 0 2.641-.5 2.637.839 2.637s3 .004 5 .004H176c.593 0 11.827-.01 3 0l3-.005c4.5.005 4 .277 4-2.636 0-10.517-7.709-19.357-17.223-19.357-.193 0-.375.01-.562.016-.265-.01-.525-.016-.796-.016l.005.021ZM.146 55.481c-.069 8.108 3.56 14.717 8.098 14.755 1.905.016 3.667-1.123 5.074-3.051a.633.633 0 0 1 1.017.008c1.38 1.953 3.122 3.122 5.021 3.138 1.899.016 3.667-1.123 5.074-3.052a.633.633 0 0 1 1.017.009c1.38 1.952 3.122 3.121 5.021 3.137 4.544.039 8.279-6.507 8.348-14.615a26.1 26.1 0 0 0-.05-1.74h-.011c-.16-9.28-8.644-16.814-19.16-16.903C9.078 37.077.217 44.67.136 54.135c-.002.192.008.373.012.56-.014.263-.021.522-.023.791l.021-.005Z" fill="#00CE4C"/></svg>
